svg/furkot/material-design/artmuseum.svg

<svg viewBox="0 0 512 512" xmlns="http://www.w3.org/2000/svg"><path d="m256 0c-142.222 0-256 113.778-256 256s113.778 256 256 256c22.756 0 42.667-19.911 42.667-42.667 0-11.377-2.845-19.911-11.378-28.444-5.689-8.533-11.378-17.067-11.378-28.445 0-22.755 19.912-42.666 42.667-42.666h51.2c79.644 0 142.222-62.578 142.222-142.222 0-125.156-113.778-227.556-256-227.556zm-156.444 256c-22.756 0-42.667-19.911-42.667-42.667s19.911-42.666 42.667-42.666 42.666 19.911 42.666 42.666-19.911 42.667-42.666 42.667zm85.333-113.778c-22.756 0-42.667-19.911-42.667-42.666s19.911-42.667 42.667-42.667 42.667 19.911 42.667 42.667-19.912 42.666-42.667 42.666zm142.222 0c-22.755 0-42.667-19.911-42.667-42.666s19.912-42.667 42.667-42.667 42.667 19.911 42.667 42.667-19.911 42.666-42.667 42.666zm85.333 113.778c-22.755 0-42.666-19.911-42.666-42.667s19.911-42.666 42.666-42.666 42.667 19.911 42.667 42.666-19.911 42.667-42.667 42.667z"/></svg>

<svg xmlns="http://www.w3.org/2000/svg" viewBox="0 0 512 512"><path d="M256 0C113.778 0 0 113.778 0 256S113.778 512 256 512C278.756 512 298.667 492.089 298.667 469.333 298.667 457.956 295.822 449.422 287.289 440.889 281.6 432.356 275.911 423.822 275.911 412.444 275.911 389.689 295.823 369.778 318.578 369.778H369.778C449.422 369.778 512 307.2 512 227.556 512 102.4 398.222 0 256 0ZM99.556 256C76.8 256 56.889 236.089 56.889 213.333S76.8 170.667 99.556 170.667 142.222 190.578 142.222 213.333 122.311 256 99.556 256ZM184.889 142.222C162.133 142.222 142.222 122.311 142.222 99.556S162.133 56.889 184.889 56.889 227.556 76.8 227.556 99.556 207.644 142.222 184.889 142.222ZM327.111 142.222C304.356 142.222 284.444 122.311 284.444 99.556S304.356 56.889 327.111 56.889 369.778 76.8 369.778 99.556 349.867 142.222 327.111 142.222ZM412.444 256C389.689 256 369.778 236.089 369.778 213.333S389.689 170.667 412.444 170.667 455.111 190.578 455.111 213.333 435.2 256 412.444 256Z"/></svg>
